images/social/zhanku@2x.svg

<svg height="30" viewBox="0 0 30 30" width="30" xmlns="http://www.w3.org/2000/svg"><g fill="none" fill-rule="evenodd" stroke="#000" transform="translate(6 7)"><path d="m11.443058.04541021c-.023373.02669547-.0701189.12585009-.1051783.22119107-.0662234.16398649-.1830882.36610936-.4285043.72840509-.0623279.09152734-.2648936.31653205-.4518773.4957731-.7790987.7589142-1.85815042 1.25850093-3.23325965 1.50257384-.31943047.05720459-.46745923.08390006-.90765.1754274-.81415816.17161377-1.73739014.49195946-2.48142941.86950974-.1830882.09152734-.37007189.18686832-.41681781.20975016-.05064142.02288183-.08959635.05339095-.08959635.0686455 0 .0190682-.01558198.03050912-.03505944.03050912-.03116395 0-.46356374.26695474-.56874207.3508548-.01947746.0190682-.15192425.11822282-.29216201.22500472-1.14137962.86950973-1.99059722 2.18521526-2.27886374 3.52380262-.03505944.16780012-.08570086.3889912-.10907382.49577309-.0623279.27076839-.05843241 1.72757854.00389549 2.04029694.15971524.7665415.19477468.888578.38954936 1.4110465.4246088 1.1326509 1.14527511 2.1203834 2.09188005 2.8831113.51810064.4195003.53757811.4309412 1.03230579.7093369.64665193.3622957 1.34394528.6178095 2.15810344.781796.45966824.095341.59211502.1029683 1.32836331.1067819.52978712 0 .90765-.0190682 1.07126073-.0495773.14023777-.0305091.34280343-.0686455.44798176-.0877137.3038485-.0610182.59211502-.1449183.99335086-.2936502 2.18926741-.7970506 3.85264311-2.6352247 4.40190771-4.8700173l.0662234-.2669547.2493116-.095341c.4908322-.1868683 1.1725436-.5720459 1.515347-.8504416.5025187-.41187299.8063672-.71315048 1.1725436-1.15934627.1129693-.13729101.3856538-.54916405.3856538-.5834868 0-.01906819.015582-.03813639.031164-.04576367.0311639-.01144092.2571026-.4576367.4362953-.85044154.0506414-.1067819.0973873-.25170019.1051783-.32797297.0272684-.1944956-.0623279-.2135638-.4207133-.09534098-.6038015.19830924-1.2699309.34322753-1.7880316.39280484l-.2142521.01906819.0779099-.0877137c.1402377-.16017285.4323997-.5834868.5492646-.79705059.0389549-.07245915.0818053-.14110465.0934918-.15254557.0467459-.04576367.4752502-.88857793.623279-1.23943274.1869837-.42712759.307744-.78942332.4518772-1.31570553.2337296-.86569609.292162-1.31189188.315535-2.35301538.0194775-.79323696.015582-.80849151-.0662234-.85044154-.0740144-.0381364-.1168648-.01144092-.4401908.29365021-.6583384.62162319-.9232319.84281427-1.3205723 1.10214173-.1558197.10296826-.292162.1944956-.3038485.20975016-.0506414.05339095-.4986232.3012775-.9543959.53009585-.7596213.38136392-1.3829002.60255499-2.2204313.79705059-.615488.14491829-.7713078.16398649-.7440393.1067819.2415206-.53772313.3778629-1.0411235.4518772-1.65893305.0506415-.41568668.015582-.88857794-.1012828-1.43774198-.0584324-.25932747-.1830882-.65594594-.2571026-.79323696-.0389549-.07627278-.1597152-.0877137-.2142521-.01906819z" fill-rule="nonzero" stroke-width="1.2"/><path d="m1.0429718 10.6488819c-.00071439-.0003029-.00142815-.0006082-.00214128-.0009158.0015606.0006732.00699935.0040201.01616972.0100431zm.01402844.0091273c.03002109.0197178.10003458.0681171.20490023.1452911.69701614.5161848 1.20300225.7620406 1.85562019.8928216l-.00041745-.0000839c-.14469365-.029124-.15069185-.031686-.15069185-.3830642 0-.0624076-.09815968.0598078-.1763333.0946069.00552826-.0041997-.07528073.008355-.13220448.008355-.25030213 0-.47941716-.1610989-.69232779-.5388663-.1515674-.2695632-.3034671-.6377397-.3034671-.6470469 0 .3152549-.35302244.531678-.61910689.4188594z"/><path d="m6.523948 11.6165248c-.03506967-.0160212-.06961156-.0332907-.10351699-.0518592-.07109678-.0389367-.23968231-.1671599-.38650653-.2971511-.07139405-.0632088-.13019953-.1201995-.16394975-.1581701.13984519.1573324.15800054.1876839-.01280952.472614-.1240095.1601789-.14404045.1692018-.18006925.1743939.33705205-.0486509.60099288-.0909209.84685204-.1398275zm-.84685204.1398275c-.0004926.000071-.0009882.0001413-.00148709.0002112.00050267-.0000725.00100517-.000145.00150751-.0002175zm3.6541717-1.066168c.24980635-.10917.51369282-.2296859.80099434-.3645887.1927795-.0906407.2757381-.1270084.3009727-.1343998-.1318099.0386082-.3379239-.0123283-.45008325-.188417-.08772189-.25111436-.08772189-.25111436-.07412561-.30990259.0054024-.03554196.00549887-.03617663.00758098-.04359282-.00102631.00366373-.005734.01774123-.013123.03740095-.02161423.05750843-.05535451.13486932-.09344188.21286496l-.00056825.00116753c-.14315467.29509447-.30388186.55917347-.47820603.78946747zm.58533916-1.04090091c.00003785-.00013483.00007637-.00027191.00011558-.00041148-.00002812.00010706-.0000611.00022796-.00009888.00036246z"/></g></svg>

<?xml version="1.0" encoding="UTF-8"?>
<svg width="30px" height="30px" viewBox="0 0 30 30" version="1.1" xmlns="http://www.w3.org/2000/svg" xmlns:xlink="http://www.w3.org/1999/xlink">
    <!-- Generator: Sketch 52.2 (67145) - http://www.bohemiancoding.com/sketch -->
    <title>投资组合/zhanku@2x</title>
    <desc>Created with Sketch.</desc>
    <g id="投资组合/zhanku" stroke="none" stroke-width="1" fill="none" fill-rule="evenodd">
        <g id="zhanku" transform="translate(6.000000, 7.000000)" stroke="#000000">
            <path d="M11.443058,0.0454102084 C11.419685,0.0721056828 11.3729391,0.171260302 11.3378797,0.266601282 C11.2716563,0.430587768 11.1547915,0.632710645 10.9093754,0.995006369 C10.8470475,1.08653371 10.6444818,1.31153842 10.4574981,1.49077947 C9.6783994,2.24969367 8.59934768,2.7492804 7.22423845,2.99335331 C6.90480798,3.0505579 6.75677922,3.07725337 6.31658845,3.16878071 C5.50243029,3.34039448 4.57919831,3.66074017 3.83515904,4.03829045 C3.65207084,4.12981779 3.46508715,4.22515877 3.41834123,4.24804061 C3.36769981,4.27092244 3.32874488,4.30143156 3.32874488,4.31668611 C3.32874488,4.33575431 3.3131629,4.34719523 3.29368544,4.34719523 C3.26252149,4.34719523 2.8301217,4.61414997 2.72494337,4.69805003 C2.70546591,4.71711823 2.57301912,4.81627285 2.43278136,4.92305475 C1.29140174,5.79256448 0.442184141,7.10827001 0.153917617,8.44685737 C0.118858175,8.61465749 0.0682167581,8.83584857 0.0448437967,8.94263046 C-0.0174841004,9.21339885 -0.0135886069,10.670209 0.0487392903,10.9829274 C0.208454527,11.7494689 0.243513969,11.8715054 0.438288647,12.3939739 C0.862897447,13.5266248 1.58356376,14.5143573 2.5301687,15.2770852 C3.04826934,15.6965855 3.06774681,15.7080264 3.56247449,15.9864221 C4.20912642,16.3487178 4.90641977,16.6042316 5.72057793,16.7682181 C6.18024617,16.8635591 6.31269295,16.8711864 7.04894124,16.875 C7.57872836,16.875 7.95659124,16.8559318 8.12020197,16.8254227 C8.26043974,16.7949136 8.4630054,16.7567772 8.56818373,16.737709 C8.87203223,16.6766908 9.16029875,16.5927907 9.56153459,16.4440588 C11.750802,15.6470082 13.4141777,13.8088341 13.9634423,11.5740415 L14.0296657,11.3070868 L14.2789773,11.2117458 C14.7698095,11.0248775 15.4515209,10.6396999 15.7943243,10.3613042 C16.296843,9.94943121 16.6006915,9.64815372 16.9668679,9.20195793 C17.0798372,9.06466692 17.3525217,8.65279388 17.3525217,8.61847113 C17.3525217,8.59940294 17.3681037,8.58033474 17.3836857,8.57270746 C17.4148496,8.56126654 17.6407883,8.11507076 17.819981,7.72226592 C17.8706224,7.61548402 17.9173683,7.47056573 17.9251593,7.39429295 C17.9524277,7.19979735 17.8628314,7.18072915 17.504446,7.29895197 C16.9006445,7.49726121 16.2345151,7.6421795 15.7164144,7.69175681 L15.5021623,7.710825 L15.5800722,7.6231113 C15.7203099,7.46293845 16.0124719,7.0396245 16.1293368,6.82606071 C16.1682917,6.75360156 16.2111421,6.68495606 16.2228286,6.67351514 C16.2695745,6.62775147 16.6980788,5.78493721 16.8461076,5.4340824 C17.0330913,5.00695481 17.1538516,4.64465908 17.2979848,4.11837687 C17.5317144,3.25268078 17.5901468,2.80648499 17.6135198,1.76536149 C17.6329973,0.972124534 17.6291018,0.956869977 17.5472964,0.914919946 C17.473282,0.876783554 17.4304316,0.903479029 17.1071056,1.20857016 C16.4487672,1.83019335 16.1838737,2.05138443 15.7865333,2.31071189 C15.6307136,2.41368015 15.4943713,2.50520749 15.4826848,2.52046205 C15.4320434,2.573853 14.9840616,2.82173955 14.5282889,3.0505579 C13.7686676,3.43192182 13.1453887,3.65311289 12.3078576,3.84760849 C11.6923696,3.99252678 11.5365498,4.01159498 11.5638183,3.95439039 C11.8053389,3.41666726 11.9416812,2.91326689 12.0156955,2.29545734 C12.066337,1.87977066 12.0312775,1.4068794 11.9144127,0.857715358 C11.8559803,0.598387892 11.7313245,0.201769416 11.6573101,0.0644784044 C11.6183552,-0.0117943796 11.4975949,-0.0232352972 11.443058,0.0454102084 L11.443058,0.0454102084 Z" id="Shape" stroke-width="1.2" fill-rule="nonzero"></path>
            <path d="M1.0429718,10.6488819 C1.04225741,10.648579 1.04154365,10.6482737 1.04083052,10.6479661 C1.04239112,10.6486393 1.04782987,10.6519862 1.05700024,10.6580092 Z M1.05700024,10.6580092 C1.08702133,10.677727 1.15703482,10.7261263 1.26190047,10.8033003 C1.95891661,11.3194851 2.46490272,11.5653409 3.11752066,11.6961219 L3.11710321,11.696038 C2.97240956,11.666914 2.96641136,11.664352 2.96641136,11.3129738 C2.96641136,11.2505662 2.86825168,11.3727816 2.79007806,11.4075807 C2.79560632,11.403381 2.71479733,11.4159357 2.65787358,11.4159357 C2.40757145,11.4159357 2.17845642,11.2548368 1.96554579,10.8770694 C1.81397839,10.6075062 1.66207869,10.2393297 1.66207869,10.2300225 C1.66207869,10.5452774 1.30905625,10.7617005 1.0429718,10.6488819 Z" id="Path"></path>
            <path d="M6.523948,11.6165248 C6.48887833,11.6005036 6.45433644,11.5832341 6.42043101,11.5646656 C6.34933423,11.5257289 6.1807487,11.3975057 6.03392448,11.2675145 C5.96253043,11.2043057 5.90372495,11.147315 5.86997473,11.1093444 C6.00981992,11.2666768 6.02797527,11.2970283 5.85716521,11.5819584 C5.73315571,11.7421373 5.71312476,11.7511602 5.67709596,11.7563523 C6.01414801,11.7077014 6.27808884,11.6654314 6.523948,11.6165248 Z M5.67709596,11.7563523 C5.67660336,11.7564233 5.67610776,11.7564936 5.67560887,11.7565635 C5.67611154,11.756491 5.67661404,11.7564185 5.67711638,11.756346 Z M9.33126766,10.6901843 C9.58107401,10.5810143 9.84496048,10.4604984 10.132262,10.3255956 C10.3250415,10.2349549 10.4080001,10.1985872 10.4332347,10.1911958 C10.3014248,10.229804 10.0953108,10.1788675 9.98315145,10.0027788 C9.89542956,9.75166444 9.89542956,9.75166444 9.90902584,9.69287621 C9.91442824,9.65733425 9.91452471,9.65669958 9.91660682,9.64928339 C9.91558051,9.65294712 9.91087282,9.66702462 9.90348382,9.68668434 C9.88186959,9.74419277 9.84812931,9.82155366 9.81004194,9.8995493 L9.80947369,9.90071683 C9.66631902,10.1958113 9.50559183,10.4598903 9.33126766,10.6901843 Z M9.91660682,9.64928339 C9.91664467,9.64914856 9.91668319,9.64901148 9.9167224,9.64887191 C9.91669428,9.64897897 9.9166613,9.64909987 9.91662352,9.64923437 Z" id="Path"></path>
        </g>
    </g>
</svg>
